data/cards/shapes/crescent.svg

<svg width="513" height="512" viewBox="0 0 513 512" fill="none" xmlns="http://www.w3.org/2000/svg">
<path d="M205.386 305.612C129.929 230.155 119.746 113.672 175.6 27.299C185.516 11.966 169.491 -7.014 153 0.832002C60.5528 44.821 -2.73316 140.165 0.0908372 250.008C3.73084 391.625 119.372 507.267 260.991 510.908C370.836 513.732 466.183 450.443 510.172 357.986C518.019 341.493 499.036 325.475 483.696 335.386C397.503 391.101 281.048 381.269 205.388 305.609L205.386 305.612Z" fill="#7CA1DC"/>
<path d="M146.433 200.767C139.274 171.386 138.167 140.856 143.182 111.034C148.196 81.2125 159.226 52.7228 175.6 27.299C185.516 11.966 169.491 -7.014 153 0.832002C60.5528 44.82 -2.73316 140.165 0.0908372 250.008C3.42584 379.764 100.791 487.696 226.008 507.668C108.973 436.829 118.975 287.168 146.433 200.768V200.767Z" fill="#5A8BD5"/>
</svg>

<svg xmlns="http://www.w3.org/2000/svg" width="513" height="512" fill="none"><path fill="#7CA1DC" d="M205.386 305.612c-75.457-75.457-85.64-191.94-29.786-278.313 9.916-15.333-6.109-34.313-22.6-26.467C60.553 44.821-2.733 140.165.09 250.008c3.64 141.617 119.282 257.259 260.901 260.9 109.845 2.824 205.192-60.465 249.181-152.922 7.847-16.493-11.136-32.511-26.476-22.6-86.193 55.715-202.648 45.883-278.308-29.777l-.002.003Z"/><path fill="#5A8BD5" d="M146.433 200.767A222.899 222.899 0 0 1 175.6 27.299c9.916-15.333-6.109-34.313-22.6-26.467C60.553 44.82-2.733 140.165.09 250.008c3.336 129.756 100.701 237.688 225.918 257.66-117.035-70.839-107.033-220.5-79.575-306.9v-.001Z"/></svg>
